X:2918
T:Jackie Daly's #1
O:england
C:Jackie Daly
R:reel
D:Arcady
M:C|
K:Edor
GF|EGB,E DE (3FED|E2Bc dBAF|EGB,E D2CD|B,CDE FAGF|
EBGE DAFD|=CDEC B,2CB,|A,B,=CE DEFB|AFDF E2:|
|:zA|Bdeg fede|fagf edBA|GFGA BABc|dcde dBA=c|
B=cBG ABAF|GAGE F2 (3A,A,A,|A,B,=CE DEFB|AFDF E2:|


